dist/assets/img/instruction/star.svg

<svg width="90" height="87" viewBox="0 0 90 87" fill="none" xmlns="http://www.w3.org/2000/svg">
<path opacity="0.05" d="M31.7288 0.667625H59.9134L51.1473 34.0675L76.225 10.4324L89.2077 34.8443L55.3639 43.4994L89.2077 53.1532L74.5606 77.2322L50.3706 53.1532L58.9148 86.4421H31.7288L40.273 53.1532L15.5282 77.2322L0.770082 53.1532L34.7248 43.4994L0.770082 34.0675L15.5282 9.32275L40.273 34.0675L31.7288 0.667625Z" fill="#525252"/>
</svg>

<svg width="90" height="87" fill="none" xmlns="http://www.w3.org/2000/svg"><path opacity=".05" d="M31.729.668h28.184l-8.766 33.4 25.078-23.636 12.983 24.412L55.364 43.5l33.844 9.654-14.647 24.08-24.19-24.08 8.544 33.29H31.729l8.544-33.29-24.745 24.08L.77 53.152 34.725 43.5.77 34.068 15.528 9.323l24.745 24.745-8.544-33.4z" fill="#525252"/></svg>
